X: 43135
T: Wink And She'll Follow You
R: slip jig
M: 9/8
K: Dmixolydian
|:D2A AGE ABc|D2A AGE G2E|D2A AGE ABc|dcA AGE G2E:|
c2e ecA ABc|B2d dBG Bcd|c2e ecA ABc|BAG AGE G2E|
c2e ecA ABc|B2d dBG Bcd|g2g gdB ABc|BAG AGE G2E||

